X: 35146
T: Rond De Loudéac
R: barndance
M: 4/4
K: Eminor
AcBA GAAG|AcBA G2 A2|AcBA GAAG|AcBA G2 z A:|
Bcdc BABF|Bcdc B2 z A|Bcdc BABF|Bcdc B2 z B|
|:AceA GBdB|ABcd edcB|A2 z A GBdB|ABcB GA A2:|

